X: 1
T: Polska efter Johan August Andersson
N: aka "Klockar-Andersson, fr Dorotea
R: hambo-polska fr F\"ollinge
M: 3/4
L: 1/16
K: G
|: "G"d3c B3c d3g | b3g d3c B3c | "D7"d4 D3F A3c |1,3 "G"BcBA GAGF G4 :|2,4 "D7"BcBA "G"G6 B2 ||
|: "G"d3g b4 b4 | "D7"d3f a4 a4 | "C"g3f e3d c3e | "D7"g2fe d6 B2 \
|  "G"d3g b4 b4 | "D7"d3f a4 a3g | "D7"fgfe d3c A3F | "G"G4 G8 :|

%%sep 1 1 500

